src/components/Logo/svg/wellcome-logo-small.svg

<svg width="146" height="44" xmlns="http://www.w3.org/2000/svg"><path d="M78 22a6.42 6.42 0 00-.12 1.42c0 .52.04.58.12 1.58h-4.48a2.36 2.36 0 01-2.25 2.16c-1.74 0-2.38-1.39-2.38-3.75 0-1.74.44-3.74 2.49-3.74a2.28 2.28 0 012 2.33H78zm7.69-2.33c2.13 0 2.43 2.12 2.43 3.71 0 1.59-.3 3.74-2.43 3.74-2.13 0-2.44-2.16-2.44-3.74s.31-3.71 2.44-3.71zM44 28c-1.77 0-2.73-2-2.88-3H51v2h-4.65c-.47 0-1.46 1-2.35 1zm-.06-8.61c1.58 0 2.61.61 2.61 2.61h-5.4c.27-2 1.24-2.61 2.79-2.61zm81.06 0c1.54 0 2.55.61 2.59 2.61h-5.39c.28-2 1.25-2.61 2.8-2.61zM0 0h146v44H0V0zm57 31l.01-20h-6v9.74c-1-3.27-3.29-5.09-7.41-5.09a7.26 7.26 0 00-6.73 4L38 16h-5.68l-2 9h-.11l-1.94-9h-5.09l-1.83 9h-.08l-2.16-9h-5.65l4.49 15h5.56l2.16-9h.08l2.1 9h5.57L36 22.37a7.08 7.08 0 00-.08 1.07c0 4.9 3.33 7.68 7.92 7.68C47 31.12 50 29.81 51 27v4h6zm68-3c-1.76 0-2.72-2-2.91-2.99h10.6c-.02-6-2.62-9.14-8.16-9.14a7.54 7.54 0 00-7.57 5.41v-.63c0-2.42-1.11-5-4.77-5a5.36 5.36 0 00-4 1.5 2.86 2.86 0 00-.22.25c-.28.29-.42.49-.53.6a4.27 4.27 0 00-3.87-2.34c-1.99 0-3.6.34-4.73 2.34H99v-2h-5v7.38c0-4.08-2.61-7.71-8-7.71-4 0-6.62 2.03-7.56 4.76-.79-3.32-3.72-4.76-6.9-4.76-4.01 0-7.54 2.38-7.54 6.1V11h-6v20h6.04v-5.79c0 3.92 3.48 5.92 7.43 5.92 3.33 0 6-1.68 7-4.73.96 2.73 3.46 4.73 7.46 4.73 5.4 0 8.07-3.66 8.07-7.74V31h5v-8.21c0-1.56.56-2.72 2-2.72 1.77 0 2 1.33 2 2.72V31h5v-8.21c0-1.56.56-2.72 2-2.72 1.74 0 2 1.33 2 2.72V31h5v-5.28a7.76 7.76 0 007.77 5.63c3.32 0 6.45-1.35 7.58-4.35h-5c-.47 0-1.47 1-2.35 1z" fill="#D4D4D4"/></svg>

<?xml version="1.0" encoding="UTF-8"?>
<svg width="146px" height="44px" viewBox="0 0 146 44" version="1.1" xmlns="http://www.w3.org/2000/svg" xmlns:xlink="http://www.w3.org/1999/xlink">
    <!-- Generator: Sketch 54.1 (76490) - https://sketchapp.com -->
    <g stroke="none" strokeWidth="1" fill="none" fillRule="evenodd">
        <path d="M78,22 C77.9074277,22.4674135 77.8671799,22.9436801 77.88,23.42 C77.88,23.94 77.92,24 78,25 L73.52,25 C73.4204417,26.1836274 72.4567038,27.1088158 71.27,27.16 C69.53,27.16 68.89,25.77 68.89,23.41 C68.89,21.67 69.33,19.67 71.38,19.67 C72.5481298,19.8140305 73.4146569,20.8235345 73.38,22 L78,22 Z M85.69,19.67 C87.82,19.67 88.12,21.79 88.12,23.38 C88.12,24.97 87.82,27.12 85.69,27.12 C83.56,27.12 83.25,24.96 83.25,23.38 C83.25,21.8 83.56,19.67 85.69,19.67 Z M44,28 C42.23,28 41.27,26 41.12,25 L51,25 L51,27 L46.35,27 C45.88,27 44.89,28 44,28 Z M43.94,19.39 C45.52,19.39 46.55,20 46.55,22 L41.15,22 C41.42,20 42.39,19.39 43.94,19.39 Z M125,19.39 C126.54,19.39 127.55,20 127.59,22 L122.2,22 C122.48,20 123.45,19.39 125,19.39 Z M0,0 L146,0 L146,44 L0,44 L0,0 Z M57,31 L57.01,11 L51.01,11 L51.01,20.74 C50.01,17.47 47.72,15.65 43.6,15.65 C40.7683434,15.5559186 38.1406543,17.1176952 36.87,19.65 L38,16 L32.32,16 L30.32,25 L30.21,25 L28.27,16 L23.18,16 L21.35,25 L21.27,25 L19.11,16 L13.46,16 L17.95,31 L23.51,31 L25.67,22 L25.75,22 L27.85,31 L33.42,31 L36,22.37 C35.9463061,22.7241296 35.9195626,23.0818232 35.92,23.44 C35.92,28.34 39.25,31.12 43.84,31.12 C47,31.12 50,29.81 51,27 L51,31 L57,31 Z M125,28 C123.24,28 122.28,26 122.09,25.01 L132.69,25.01 C132.67,19.01 130.07,15.87 124.53,15.87 C121.062178,15.7158092 117.937178,17.9491313 116.96,21.28 L116.96,20.65 C116.96,18.23 115.85,15.65 112.19,15.65 C110.706413,15.5740952 109.257861,16.1173022 108.19,17.15 C108.111873,17.2289895 108.038415,17.3124643 107.97,17.4 C107.69,17.69 107.55,17.89 107.44,18 C106.702864,16.5448193 105.201067,15.6367565 103.57,15.66 C101.58,15.66 99.97,16 98.84,18 L99,18 L99,16 L94,16 L94,23.38 C94,19.3 91.39,15.67 86,15.67 C82,15.67 79.38,17.7 78.44,20.43 C77.65,17.11 74.72,15.67 71.54,15.67 C67.53,15.67 64,18.05 64,21.77 L64,11 L58,11 L58,31 L64.04,31 L64.04,25.21 C64.04,29.13 67.52,31.13 71.47,31.13 C74.8,31.13 77.47,29.45 78.47,26.4 C79.43,29.13 81.93,31.13 85.93,31.13 C91.33,31.13 94,27.47 94,23.39 L94,31 L99,31 L99,22.79 C99,21.23 99.56,20.07 101,20.07 C102.77,20.07 103,21.4 103,22.79 L103,31 L108,31 L108,22.79 C108,21.23 108.56,20.07 110,20.07 C111.74,20.07 112,21.4 112,22.79 L112,31 L117,31 L117,25.72 C117.980334,29.1649433 121.191076,31.4913882 124.77,31.35 C128.09,31.35 131.22,30 132.35,27 L127.35,27 C126.88,27 125.88,28 125,28 Z" id="Combined-Shape" fill="#D4D4D4" fillRule="nonzero"></path>
    </g>
</svg>
